!!!OTL: Reiter und Hirtenmaedchen Es wollte ein Maedchen die Laemmelein hueten im Holze,
!!!ARE: Europa, Mitteleuropa, Deutschland (BRD), Hessen, Taunus, Bechtheim
!!!YOR: 7, S. 112
!!    18?? aufgezeichnet (2. Haelfte des 19. Jh.)
!!!SCT: Q0148A
!!!YEM: Copyright 1995, estate of Helmut Schaffrath.
**kern
*ICvox
*Ivox
*M6/8
*k[f#]
*G:
{8d
=1
8g
8g
8g
8b
8b
8b
=2
8dd
8dd
8dd
8b
8b
8dd
=3
4.cc
4.dd
=4
4b
4.r}
{8d
=5
4g
8g
8b
8b
8b
=6
8dd
8dd
8dd
4b
8dd
=7
4.cc
4.dd
=8
4.b
4r}
{8b
=9
8b
8a
8a
8a
8b
8cc
=10
8cc
8b
8b
8b
8r}
{8dd
=11
8dd
8cc
8cc
8cc
8dd
8ee
=12
8ee
8dd
8dd
4dd
8r
=13
4.r}
{4.dd
=14
8b
8cc
8dd
8dd
8cc
8b
=15
4.b
4.dd}
=16
{8b
8b
8b
8dd
8cc
8a
=17
4g
4.r}
==
!!!AGN: Ballade, Verfuehrung, Schwangerschaft
!! Fuenfte und sechste Zeile = Refrain.
!!!ONB: ESAC (Essen Associative Code) Database: BALLADE
!!!AMT: compound duple
!!!AIN: vox
!!!EED: Helmut Schaffrath
!!!EEV: 1.0
*-
